!!!OTL: 1026. Regenliedchen.
!!!ARE: Europa, Mitteleuropa, Deutschland, Moers
!!!SCT: K1026
!!!YEM: Copyright 1995, estate of Helmut Schaffrath.
**kern	**text
*clefG2	*
*M2/4	*
*k[f#]	*
*G:	*
=1	=1
{8g	Re-
8g	-ge,
8a	Re-
8a	-ge-
=2	=2
8b/	-ſchu-
8g	-re!
8r}	.
{8d	de
=3	=3
8g	Kal-
8g	-wer1)
8a	op
8a	de
=4	=4
8b/	Mu-
8g	-re.
8r}	.
{8d	Do
=5	=5
8b	ſoot
8b	en
16a	Vö-
16a	-gel-
8a	-ſchen
=6	=6
8b	op
8b	et
8b}	Däk,
{8b	dat
=7	=7
8a	riep
8a	al
8a	ömmer
8a	.
=8	=8
4b^^	Weit!2)
4b^^}	weit!
=9	=9
{8a	dat
8a	de
8a	Re-
8b/	-gen
=10	=10
8g	ö-
8g	-ver-
4g^^}	-geit.
==	==
!!!AGN: Kinder -, Natur -, Regen - Lied
!!!ONB: ESAC (Essen Associative Code) Database: KINDER
!!!AMT: simple duple
!!!AIN: vox
!!!EED: Helmut Schaffrath
!!!EEV: 1.0
!!Aus Moers: Erk II, 4/5, 92.
!!!GTL: VI. Das Kind im Verkehr mit der Natur. C. Das Kind und die Naturerscheinungen. (Wetterliedchen)
!!@@COMMENT:"1) Kalwer, Kälber. 2) Weit, richtiger weiht, d. h. weht! iſt ein Ʒuruf an die Wolken. Statt deſſen wird auch geſungen: "Mai! Mai!, daß der Regen vorübergeht."
!!@@END:
!!!URL-scan: https://archive.org/details/DeutschesKinderliedUndKinderspiel/page/209/mode/1up
!!!ENC: Anna Maria Matuszewska
!!!EEV: 2024/30/08
*-	*-
